X:2661
T:Polonäs efter Pehr Andersson
S:efter Pehr Andersson
B:Pehr Anderssons notbok, nr 7
B:http://www.smus.se/earkiv/fmk/browselarge.php?lang=sw&katalogid=Ma+1&bildnr=00004
O:Måstorp, Närke
R:Slängpolska
Z:Nils L
M:3/4
L:1/16
K:G
(G2GA) (B2Bc) (d2ef) | g2(fe) d2ed c4 | cecA BdBG A2c2 | BAGF G4 G,4 ::
gbge gbge gbge | fafd fafd fafd | d2ef g2f2 e2d2 | fedc d4 D4 |
cecA cecA BdBG BdBG | G2AB c2B2 A2G2 | BAGF G4 G,4 ::
(:musicend:)
(:music:)
